X:1
T:Hear the Call
T:Hear the Call
T:William Fiske Sherwin
T:William Fiske Sherwin, 1876
T:Public Domain Courtesy of the Cyber Hymnal™
C:William Fiske Sherwin
Z:Public Domain
Z:Courtesy of the Cyber Hymnal™
%%score ( 1 2 ) ( 3 4 )
L:1/8
Q:1/4=110
M:4/4
K:Bb
V:1 treble 
V:2 treble 
V:3 bass 
V:4 bass 
V:1
 [DF]2 [^C=E]2 [DF]2 [FB]2 | [Fc]2 (B>c) [Fd]2 [DB]2 | [EG]2 [Ee]2 [DF]2 [Fd]2 | [=Ed]2 (cG) c4 | %4
w: 1.~Lo! the day of|God is * break- ing;|See the gleam- ing|from a- * far!|
w: 2.~Trust in Him who|is your * cap- tain;|Let no heart in|ter- ror * quail;|
w: 3.~On- ward march- ing,|firm and * stea- dy,|Faint not, fear not|Sa- tan’s * frown,|
w: 4.~Con- quering hosts with|ban- ners * wav- ing,|Sweep- ing on o’er|hill and * plain,|
 [DF]2 [^C=E]2 [DF]2 [FB]2 | [Fc]2 (B>c) [Fd]2 [DB]2 | [EG]2 [Ge]2 [Fd]2 ([FB]>[Gc]) | %7
w: Sons of earth from|slum- ber * wak- ing,|Hail the bright and *|
w: Je- sus leads the|gath- ’ring * le- gions,|In His name we *|
w: For the Lord is|with you * al- ways,|Till you wear the *|
w: Ne’er shall halt till|swells the * an- them,|“Christ o’er all the *|
 [Fd]2 [Ec]2 [DB]4 ||"^Refrain" [^Fd]2 [Fd]2 [Fd]3 [FA] | [GB]2 (GA) [GB][DA] [DG]2 | %10
w: morn- ing star.|||
w: shall pre- vail.|||
w: vic- tor’s crown.|||
w: world doth reign!”|||
 [=Ec]2 [Ec]2 [Ec]2 ([EG][GB]) | [FA]2 [=EG]2 F4 | [DF]2 [^C=E]2 [DF]2 [FB]2 | %13
w: |||
w: |||
w: |||
w: |||
 [Fc]2 [Af]2 (f>d) [FB]2 | [=EB]2 [EB]2 [FB]>[FA] [FB][Fd] | [Ec]2 [FA]2 [DB]4 |] %16
w: |||
w: |||
w: |||
w: |||
V:2
 x8 | x2 F2 x4 | x8 | x2 =E2 (F2 _E2) | x8 | x2 F2 x4 | x8 | x8 || x8 | x2 D2 x4 | x8 | %11
 x4 (F2 _E2) | x8 | x4 B2 x2 | x8 | x8 |] %16
V:3
 [B,,B,]2 [B,,G,]2 [B,,F,]2 [D,F,]2 | [F,A,]2 (G,>A,) B,2 [B,,B,]2 | [E,B,]2 [G,B,]2 B,2 [B,,B,]2 | %3
w: ~ ~ ~ ~|~ ~ * ~ ~|~ ~ ~ ~|
 [C,G,]2 (G,B,) [F,A,]4 | [B,,B,]2 [B,,G,]2 [B,,F,]2 [D,F,]2 | [F,A,]2 (G,>A,) B,2 B,2 | %6
w: ~ ~ * ~|~ ~ ~ ~|~ ~ * ~ ~|
 [E,B,]2 [E,B,]2 [B,,B,]2 B,2 | [F,B,]2 [F,A,]2 B,4 || [D,A,]2 [D,A,]2 [D,A,]3 [D,D] | %9
w: ~ ~ ~ ~|~ ~ ~|Hear the call! O|
 [G,D]2 (B,C) [G,D][G,C] [G,B,]2 | [C,G,]2 [C,G,]2 [C,G,]2 [=E,C]2 | [F,C]2 [C,B,]2 [F,A,]4 | %12
w: gird your * ar- mor on,|Grasp the Spir- it’s|might- y sword:|
 [B,,B,]2 [B,,G,]2 [B,,F,]2 [D,F,]2 | [F,A,]2 [F,C]2 [B,D]2 [B,D]2 | %14
w: Take the hel- met|of sal- va- tion,|
 [G,^C]2 [G,C]2 [F,D]>[F,=C] [F,D][F,B,] | [F,A,]2 [F,,C]2 [B,,B,]4 |] %16
w: Press- ing on to bat- tle|for the Lord!|
V:4
 x8 | x2 F,2 B,2 x2 | x4 B,2 x2 | x2 C,2 x4 | x8 | x2 F,2 B,2 B,2 | x6 (D,>E,) | x4 B,4 || x8 | %9
 x2 G,2 x4 | x8 | x8 | x8 | x8 | x8 | x8 |] %16

